docs/svg/nwhacks-logo-white.svg

<?xml version="1.0" encoding="UTF-8" standalone="no"?>
<!-- Generator: Adobe Illustrator 15.0.0, SVG Export Plug-In . SVG Version: 6.00 Build 0)  -->

<svg
   xmlns:dc="http://purl.org/dc/elements/1.1/"
   xmlns:cc="http://creativecommons.org/ns#"
   xmlns:rdf="http://www.w3.org/1999/02/22-rdf-syntax-ns#"
   xmlns:svg="http://www.w3.org/2000/svg"
   xmlns="http://www.w3.org/2000/svg"
   xmlns:sodipodi="http://sodipodi.sourceforge.net/DTD/sodipodi-0.dtd"
   xmlns:inkscape="http://www.inkscape.org/namespaces/inkscape"
   version="1.1"
   id="Layer_1"
   x="0px"
   y="0px"
   width="640px"
   height="640px"
   viewBox="0 0 640 640"
   enable-background="new 0 0 640 640"
   xml:space="preserve"
   inkscape:version="0.91 r13725"
   sodipodi:docname="nwhacks-logo-white.svg"><metadata
     id="metadata31"><rdf:RDF><cc:Work
         rdf:about=""><dc:format>image/svg+xml</dc:format><dc:type
           rdf:resource="http://purl.org/dc/dcmitype/StillImage" /><dc:title></dc:title></cc:Work></rdf:RDF></metadata><defs
     id="defs29" /><sodipodi:namedview
     pagecolor="#000000"
     bordercolor="#666666"
     borderopacity="1"
     objecttolerance="10"
     gridtolerance="10"
     guidetolerance="10"
     inkscape:pageopacity="0"
     inkscape:pageshadow="2"
     inkscape:window-width="958"
     inkscape:window-height="1048"
     id="namedview27"
     showgrid="false"
     inkscape:zoom="0.7375"
     inkscape:cx="298.14816"
     inkscape:cy="147.58832"
     inkscape:window-x="0"
     inkscape:window-y="30"
     inkscape:window-maximized="0"
     inkscape:current-layer="Layer_1" /><path
     style="fill:#ffffff"
     d="M 320 0 A 320 320 0 0 0 0 320 A 320 320 0 0 0 320 640 A 320 320 0 0 0 640 320 A 320 320 0 0 0 320 0 z M 169.5 139.09766 L 426.5 397.31641 L 426.5 181.54492 L 470.5 139.09766 L 470.5 500.90234 L 212.5 242.68164 L 212.5 397.31641 L 278.36914 331.5 L 308.58984 362.07617 L 169.5 500.90234 L 169.5 139.09766 z "
     id="circle3" /></svg>

<svg xmlns="http://www.w3.org/2000/svg" width="640" height="640" viewBox="0 0 640 640"><path d="M320 0A320 320 0 0 0 0 320a320 320 0 0 0 320 320 320 320 0 0 0 320-320A320 320 0 0 0 320 0zM169.5 139.098l257 258.218V181.545l44-42.447v361.804l-258-258.22v154.634l65.87-65.816 30.22 30.576L169.5 500.902V139.098z" fill="#fff"/></svg>
